!!!COM: Paul Hindemith
!!!OTL: [T613_Hin-w9p44m1-23]
**kern	**dynam	**kern	**dynam	**kern	**dynam	**kern	**dynam
*part4	*part4	*part3	*part3	*part2	*part2	*part1	*part1
*staff4	*	*staff3	*	*staff2	*	*staff1	*
*I"Violoncello	*	*I"Viola	*	*I"Violin II	*	*I"Violin I	*
*I'Vc.	*	*I'Vla.	*	*I'Vln. II	*	*I'Vln. I	*
!!pagebreak:original
*clefF4	*	*clefC3	*	*clefG2	*	*clefG2	*
*k[]	*	*k[]	*	*k[]	*	*k[]	*
*C:	*	*C:	*	*C:	*	*C:	*
*M2/8	*	*M2/8	*	*M2/8	*	*M2/8	*
=1	=1	=1	=1	=1	=1	=1	=1
!LO:TX:b:t=	!	!	!	!	!	!	!
*Xtuplet	*	*	*	*	*	*	*
!	!	!LO:TX:b:t=	!	!	!	!	!
*	*	*Xtuplet	*	*	*	*	*
!	!	!	!	!	!	!LO:TX:t=[quarter]=120	!
!	!	!	!	!	!	!LO:TX:a:B:t=FINALE Äußerst lebhaft (Ganze Takte M.M. 128-136) Das Zeitmaß der ganzen Takte ist ohne Rücksicht auf die Taktvorschrift stets das Gleiche. Also q immer gleich q. !	!
!	!	!	!	!LO:TX:b:t=	!	!LO:TX:b:t=	!
12r	.	12r	.	4r)	.	4r	.
(12CL	f <	(12GL	f <	.	.	.	.
12DJ)	.	12AJ)	.	.	.	.	.
=2	=2	=2	=2	=2	=2	=2	=2
12FL	.	12cL	.	16ccLL	mf	16cccLL	mf
.	.	.	.	16cc	.	16ccc	.
(12F	.	(12c	.	.	.	.	.
.	.	.	.	16dd	.	16ddd	.
12GJ)	[	12dJ)	[	.	.	.	.
.	.	.	.	16aJJ	.	16aaJJ	.
=3	=3	=3	=3	=3	=3	=3	=3
12B-XL	.	12fL	.	[4cc	.	[4ccc	.
(12B-	.	(12f	.	.	.	.	.
12GJ)	.	12dJ)	.	.	.	.	.
=4	=4	=4	=4	=4	=4	=4	=4
(12AL	>	(12eL	>	16ccLL]	.	16cccLL]	.
.	.	.	.	16cc	.	16ccc	.
12E)	.	12B)	.	.	.	.	.
.	.	.	.	16dd	.	16ddd	.
(12GJ	.	(12dJ	.	.	.	.	.
.	.	.	.	16aJJ	.	16aaJJ	.
=5	=5	=5	=5	=5	=5	=5	=5
12DL)	.	12AL)	.	[4cc	.	[4ccc	.
(12E	]	(12B	]	.	.	.	.
12BBJ)	.	12F#XJ)	.	.	.	.	.
=6	=6	=6	=6	=6	=6	=6	=6
12AAL	.	12EL	.	16ccLL]	.	16cccLL]	.
.	.	.	.	16cc	.	16ccc	.
(12AA	.	(12E	.	.	.	.	.
.	.	.	.	16dd	.	16ddd	.
12GGJ 12D)	.	12GJ)	.	.	.	.	.
.	.	.	.	16aJJ	.	16aaJJ	.
=7	=7	=7	=7	=7	=7	=7	=7
12FFL 12C	<	12DL 12A	<	[4cc	<	[4ccc	<
(12FF 12C	.	(12D 12A	.	.	.	.	.
12EEJ 12BB)	.	12EJ 12B)	.	.	.	.	.
=8	=8	=8	=8	=8	=8	=8	=8
12DDL 12AA	.	12FL 12c	.	16ccLL]	.	16cccLL]	.
.	.	.	.	16cc	.	16ccc	.
(12DD 12AA	.	(12F 12c	.	.	.	.	.
.	.	.	.	16dd	.	16ddd	.
12CCJ 12GG)	[	12GJ 12d)	[	.	.	.	.
.	.	.	.	16aJJ	[	16aaJJ	[
!!linebreak:original
=9	=9	=9	=9	=9	=9	=9	=9
*	*	*	*	*Xtuplet	*	*Xtuplet	*
[4DD [4AA	mf	[4F [4c	mf	12aL	f <	12cccL	f <
.	.	.	.	(12ff	.	(12ccc	.
.	.	.	.	12ggJ)	[	12dddJ)	[
=10	=10	=10	=10	=10	=10	=10	=10
*	*	*	*	*^	*	*	*
!	!	!	!	!	!	!	!LO:TX:a:B:t=10	!
8DDL] 8AA]	.	16FLL] 16c]	.	12cccL	12a	>	12gggL	>
.	.	16c	.	.	.	.	.	.
.	.	.	.	(12ccc	6a	.	(12ggg	.
8GGJ 8D	.	16d	.	.	.	.	.	.
.	.	.	.	12bb-XJ)	.	]	12fffJ)	]
.	.	16AJJ	.	.	.	.	.	.
*	*	*	*	*v	*v	*	*	*
=11	=11	=11	=11	=11	=11	=11	=11
[4DD [4AA	.	[4F [4c	.	12aL 12ff	<	12cccL	<
.	.	.	.	(12ff	.	(12ccc	.
.	.	.	.	12ggJ)	[	12dddJ)	[
=12	=12	=12	=12	=12	=12	=12	=12
*	*	*	*	*^	*	*	*
8DDL] 8AA]	.	16FLL] 16c]	.	12bb-XL	12a	>	12fffL	>
.	.	16c	.	.	.	.	.	.
.	.	.	.	(12bb-	6a	.	(12fff	.
8GGJ 8D	.	16d	.	.	.	.	.	.
.	.	.	.	12aaJ)	.	]	12eeeJ)	]
.	.	16AJJ	.	.	.	.	.	.
*	*	*	*	*v	*v	*	*	*
=13	=13	=13	=13	=13	=13	=13	=13
[4DD [4AA	p	[4c	p	12a 12ee	.	12bbL	.
.	.	.	.	12r	.	(12dd	mf
.	.	.	.	12r	.	12eeJ)	.
=14	=14	=14	=14	=14	=14	=14	=14
4DD_ 4AA_	.	16cLL]	.	12r	.	12ffL	<
.	.	16B	.	.	.	.	.
.	.	.	.	(12ddL	p	(12gg	.
.	.	16c	.	.	.	.	.
.	.	.	.	12eeJ)	.	12aaJ)	[
.	.	16c#XJJ	.	.	.	.	.
=15	=15	=15	=15	=15	=15	=15	=15
!LO:TX:b:i:t=cresc.	!	!LO:TX:b:i:t=cresc.	!	!LO:TX:b:i:t=cresc.	!	!LO:TX:b:i:t=cresc.	!
4DD] 4AA]	.	[4d	.	(16ffLL	.	(12bb-XL	>
.	.	.	.	16ee	.	.	.
.	.	.	.	.	.	12ddd)	.
.	.	.	.	16dd	.	.	.
.	.	.	.	.	.	(12aaJ	]
.	.	.	.	16ccJJ	.	.	.
=16	=16	=16	=16	=16	=16	=16	=16
[4GG [4D	.	16dLL]	.	12a)	.	12cccL)	.
.	.	16c#X	.	.	.	.	.
.	.	.	.	12r	.	(12gg	.
.	.	16d	.	.	.	.	.
.	.	.	.	12r	.	12aaJ)	.
.	.	16eJJ	.	.	.	.	.
!!pagebreak:original
=17	=17	=17	=17	=17	=17	=17	=17
4GG] 4D]	.	[4f	.	12r	.	12bb-XL	<
.	.	.	.	(12ggL	.	(12ccc	.
.	.	.	.	12aaJ)	.	12dddJ)	[
=18	=18	=18	=18	=18	=18	=18	=18
4FF 4C	.	16fLL]	.	(16bb-XLL	.	(12eee-XL	>
.	.	16e	.	16aa	.	.	.
.	.	.	.	.	.	12ggg)	.
.	.	16f	.	16gg	.	.	.
.	.	.	.	.	.	(12cccJ	]
.	.	16gJJ	.	16ffJJ	.	.	.
=19	=19	=19	=19	=19	=19	=19	=19
[4BB-X [4F	.	[4a-X	.	12cc)	.	12eee-XL)	.
.	.	.	.	12r	.	(12bb-X	.
.	.	.	.	12r	.	12cccJ)	.
=20	=20	=20	=20	=20	=20	=20	=20
!	!	!	!	!	!	!LO:TX:a:B:t=20	!
4BB-] 4F]	.	16a-LL]	.	12r	.	12ddd-XL	.
.	.	16g	<	.	.	.	.
.	.	.	.	(12ccL	<	(12eee-X	<
.	.	16a-X	.	.	.	.	.
.	.	.	.	12ddJ)	.	12fffJ)	.
.	.	16b-XJJ	.	.	.	.	.
=21	=21	=21	=21	=21	=21	=21	=21
4AA-X 4E-X	<	[4bn	.	16ffLL	.	(12gggL	.
.	.	.	.	16ee	.	.	.
.	.	.	.	.	.	12aaa-X)	.
.	.	.	.	16ff	.	.	.
.	.	.	.	.	.	(12gggJ	.
.	.	.	.	16ggJJ	.	.	.
=22	=22	=22	=22	=22	=22	=22	=22
[4DD [4GG	.	4b_	.	16ffLL	.	12aaa-XL)	.
.	.	.	.	16ee	.	.	.
.	.	.	.	.	.	(12ggg#X	.
.	.	.	.	16ff	.	.	.
.	.	.	.	.	.	12aaanJ)	.
.	.	.	.	16ggJJ	.	.	.
=23	=23	=23	=23	=23	=23	=23	=23
4DD_ 4GG_	[	4b_	[	16ffLL	.	(12ggg#XL	.
.	.	.	.	16ee	.	.	.
.	.	.	.	.	.	12aaa)	.
.	.	.	.	16ff	.	.	.
.	.	.	.	.	.	(12fff#XJ	[
.	.	.	.	16ggJJ	[	.	.
=	=	=	=	=	=	=	=
*-	*-	*-	*-	*-	*-	*-	*-
!!!system-decoration: [(s1,s2,s3,s4)]
